X:284
T: NACHTIGALL ICH HOER DICH SINGEN
N: Z0282
O: Europa, Mitteleuropa, Deutschland
R: Lyrisches Lied, Romanze
M: 4/4
L: 1/8
K: F
C2C2 | F2A2A2GF | G2C2
C2C2 | G2B2B2AG | A2F2
C2C2 | F2A2A2GF | G4
B2B2 | A2BGF2E2 | F4

@@@ Tune index: 10042
